public/brands/devpod.svg

<svg width="280" height="80" viewBox="0 0 280 80" fill="none" xmlns="http://www.w3.org/2000/svg">
<path d="M239.621 31.0285C238.355 29.6864 236.86 28.6514 235.097 27.9229C233.333 27.1945 231.417 26.811 229.308 26.811C227.237 26.811 225.321 27.1945 223.596 27.9229C221.833 28.6514 220.336 29.6864 219.072 31.0285C217.806 32.3703 216.809 33.9422 216.082 35.8208C215.353 37.6994 215.008 39.7698 215.008 42.0701C215.008 44.3705 215.353 46.4409 216.042 48.3579C216.732 50.2749 217.73 51.885 218.956 53.2269C220.222 54.5687 221.717 55.6039 223.481 56.3707C225.244 57.0992 227.161 57.4825 229.308 57.4825C231.493 57.4825 233.449 57.0992 235.212 56.3707C236.976 55.6423 238.471 54.6071 239.737 53.2269C241.001 51.885 241.961 50.2749 242.611 48.3579C243.264 46.4409 243.609 44.3705 243.609 42.0701C243.609 39.7698 243.264 37.6994 242.574 35.8208C241.845 33.9805 240.848 32.3703 239.621 31.0285ZM233.678 48.1661C232.682 49.6613 231.225 50.3897 229.346 50.3897C227.468 50.3897 226.01 49.6613 224.976 48.1661C223.941 46.6709 223.442 44.6389 223.442 42.1085C223.442 39.5781 223.941 37.5461 224.976 36.0893C226.01 34.6324 227.468 33.9038 229.346 33.9038C231.225 33.9038 232.682 34.6324 233.678 36.0893C234.675 37.5461 235.212 39.5397 235.212 42.1085C235.173 44.6389 234.675 46.6709 233.678 48.1661Z" fill="white"/>
<path d="M209.41 22.7088C206.304 20.6768 201.858 19.6416 196.03 19.6416C194.419 19.6416 192.54 19.7184 190.432 19.8716C188.284 20.0251 186.291 20.2935 184.375 20.6768V57.406H193.154V46.0192H195.915C201.742 46.0192 206.267 44.984 209.41 42.9138C212.555 40.8434 214.126 37.4695 214.126 32.7922C214.087 28.1147 212.515 24.7408 209.41 22.7088ZM202.739 37.2779C201.205 38.083 198.905 38.5047 195.875 38.5047H193.116V27.2713C193.575 27.2329 194.112 27.1945 194.725 27.1563C195.339 27.1179 195.952 27.1179 196.604 27.1179C197.87 27.1179 199.02 27.1945 200.094 27.3863C201.129 27.5396 202.048 27.8462 202.777 28.2681C203.506 28.6898 204.08 29.2649 204.464 29.9932C204.848 30.7218 205.04 31.6036 205.04 32.6772C205.04 34.939 204.272 36.4727 202.739 37.2779Z" fill="white"/>
<path d="M116.437 24.2806C114.52 22.7087 112.258 21.5584 109.612 20.8301C106.967 20.1015 104.015 19.7183 100.756 19.7183C99.2223 19.7183 97.3822 19.7949 95.2351 19.9099C93.0881 20.0249 91.0561 20.2932 89.0625 20.6383V56.5624C91.0177 56.984 93.0497 57.2141 95.0817 57.3675C97.1137 57.4825 98.9157 57.5592 100.449 57.5592C103.823 57.5592 106.852 57.1375 109.536 56.3707C112.258 55.5655 114.52 54.3771 116.399 52.7668C118.277 51.1565 119.734 49.1245 120.769 46.6708C121.804 44.2171 122.303 42.4535 122.303 39.1563C122.303 35.7056 121.804 32.7919 120.769 30.3382C119.811 27.8461 118.354 25.8525 116.437 24.2806ZM110.456 46.9775C108.386 49.1245 105.203 50.1981 100.948 50.1981C100.219 50.1981 99.5674 50.1981 99.0691 50.1597C98.5322 50.1597 98.0723 50.1213 97.6888 50.0831V27.1943C98.2255 27.1177 98.839 27.0793 99.4524 27.0409C100.066 27.0409 100.679 27.0027 101.254 27.0027C105.548 27.0027 108.654 28.0379 110.648 30.0699C112.603 32.1017 113.6 35.1307 113.6 39.1179C113.561 42.9519 112.526 44.8304 110.456 46.9775Z" fill="white"/>
<path d="M171.07 32.8684C170.572 34.5171 170.074 36.2041 169.537 37.9292C169 39.6162 168.463 41.2649 167.927 42.875C167.39 44.4853 166.853 45.9422 166.393 47.2458C165.895 45.9422 165.358 44.4853 164.821 42.875C164.284 41.2649 163.748 39.6162 163.211 37.9292C162.674 36.2423 162.176 34.5554 161.677 32.8684C161.179 31.2199 160.757 29.648 160.374 28.2295H151.709C153.434 34.0186 155.275 39.3479 157.192 44.2553C159.108 49.1626 161.025 53.4185 162.904 57.099H169.69C171.569 53.4567 173.447 49.1626 175.364 44.2553C177.281 39.3479 179.122 34.0186 180.848 28.2295H172.412C171.991 29.648 171.569 31.1815 171.07 32.8684Z" fill="white"/>
<path d="M148.949 49.393C148.911 49.393 148.872 49.4314 148.834 49.4314C148.182 49.6997 147.53 49.8915 146.879 50.0832C146.418 50.1982 145.958 50.3132 145.422 50.3898C144.732 50.5048 144.003 50.6199 143.313 50.6967C142.546 50.7733 141.779 50.8115 141.013 50.8115C138.674 50.8115 136.795 50.3132 135.415 49.3164C134.035 48.3196 133.23 46.9777 133.076 45.329H151.594C151.633 44.9073 151.671 44.3706 151.709 43.8339C151.748 43.2588 151.748 42.7603 151.748 42.2618C151.748 37.3928 150.559 33.7121 148.182 31.2202C145.805 28.7281 142.585 27.4629 138.482 27.4629C136.719 27.4629 135.032 27.808 133.345 28.4597C131.696 29.1114 130.201 30.07 128.936 31.3735C127.67 32.6387 126.635 34.249 125.83 36.166C125.025 38.083 124.642 40.3066 124.642 42.8753C124.642 44.984 124.948 46.9777 125.562 48.7797C126.175 50.6199 127.095 52.1918 128.361 53.5336C129.626 54.8755 131.198 55.9107 133.115 56.6775C135.032 57.4444 137.294 57.8277 139.901 57.8277C140.936 57.8277 141.933 57.7895 142.968 57.6744C143.198 57.636 143.39 57.636 143.62 57.5976C149.256 56.9843 152.399 55.2974 152.399 55.2974L150.214 48.7413C149.792 49.0097 149.371 49.2014 148.949 49.393ZM133.536 37.6995C133.766 37.0094 134.111 36.4343 134.533 35.936C134.955 35.4375 135.53 35.0158 136.182 34.7091C136.834 34.4023 137.639 34.249 138.521 34.249C139.479 34.249 140.284 34.4023 140.898 34.7473C141.549 35.0924 142.048 35.5141 142.47 36.0126C142.891 36.5111 143.198 37.1244 143.39 37.7761C143.581 38.428 143.696 39.118 143.735 39.8081H133.038C133.153 39.0414 133.306 38.3512 133.536 37.6995Z" fill="white"/>
<path d="M265.463 21.1751V27.9611C264.543 27.5394 263.584 27.2327 262.663 27.0027C261.744 26.7726 260.708 26.6576 259.558 26.6576C257.449 26.6576 255.609 27.0027 253.961 27.731C252.351 28.4596 250.971 29.4564 249.821 30.8366C248.708 32.1785 247.826 33.827 247.252 35.744C246.639 37.661 246.37 39.8464 246.37 42.2235C246.37 44.6005 246.715 46.7092 247.405 48.5877C248.095 50.4663 249.092 52.0766 250.395 53.4185C251.698 54.7604 253.309 55.7572 255.225 56.4857C257.143 57.2141 259.289 57.5591 261.744 57.5591C262.74 57.5591 263.814 57.5209 264.927 57.4059C266.038 57.3291 267.111 57.1758 268.185 57.0224C269.259 56.8692 270.255 56.6773 271.252 56.4857C272.21 56.2941 273.092 56.064 273.821 55.834V17.0728L265.463 21.1751ZM265.463 50.1596C265.04 50.2363 264.543 50.3131 263.89 50.3513C263.239 50.3897 262.55 50.4281 261.821 50.4281C259.52 50.4281 257.794 49.6229 256.644 48.051C255.494 46.4791 254.919 44.4087 254.919 41.8016C254.919 36.3957 256.912 33.712 260.863 33.712C261.705 33.712 262.587 33.827 263.431 34.0571C264.274 34.2871 264.964 34.5556 265.463 34.9006V50.1596Z" fill="white"/>
<path d="M25.8405 58.2496L55.3619 2.84912H44.8568L20.2814 48.9715L15.1438 39.6933L25.3804 21.2521H15.1438L4.90723 39.6933L15.1438 58.1346H15.4122L15.3355 58.2496H25.8405Z" fill="#BA50FF"/>
<path d="M60.308 21.4817H60.0779L60.1163 21.3667H49.6113L20.0898 76.7672H30.5949L55.1706 30.6449L60.308 39.923L50.0714 58.3642H60.308L70.5446 39.923L60.308 21.4817Z" fill="#BA50FF"/>
</svg>

<svg xmlns="http://www.w3.org/2000/svg" width="280" height="80" fill="none"><path fill="#fff" d="M239.621 31.029a12.9 12.9 0 0 0-4.524-3.106c-1.764-.728-3.68-1.112-5.789-1.112-2.071 0-3.987.384-5.712 1.112a12.9 12.9 0 0 0-4.524 3.106c-1.266 1.341-2.263 2.913-2.99 4.792-.729 1.878-1.074 3.949-1.074 6.25 0 2.3.345 4.37 1.034 6.287a14.3 14.3 0 0 0 2.914 4.869c1.266 1.342 2.761 2.377 4.525 3.144 1.763.728 3.68 1.111 5.827 1.111 2.185 0 4.141-.383 5.904-1.111 1.764-.729 3.259-1.764 4.525-3.144 1.264-1.342 2.224-2.952 2.874-4.87.653-1.916.998-3.986.998-6.287s-.345-4.37-1.035-6.25c-.729-1.84-1.726-3.45-2.953-4.791m-5.943 17.137c-.996 1.495-2.453 2.224-4.332 2.224-1.878 0-3.336-.729-4.37-2.224s-1.534-3.527-1.534-6.057.499-4.563 1.534-6.02q1.552-2.185 4.37-2.185c1.879 0 3.336.728 4.332 2.185.997 1.457 1.534 3.45 1.534 6.02-.039 2.53-.537 4.562-1.534 6.057M209.41 22.709c-3.106-2.032-7.552-3.067-13.38-3.067-1.611 0-3.49.076-5.598.23a48 48 0 0 0-6.057.805v36.729h8.779V46.019h2.761c5.827 0 10.352-1.035 13.495-3.105q4.717-3.106 4.716-10.122c-.039-4.677-1.611-8.051-4.716-10.083m-6.671 14.569c-1.534.805-3.834 1.227-6.864 1.227h-2.759V27.27a77 77 0 0 1 1.609-.115c.614-.038 1.227-.038 1.879-.038 1.266 0 2.416.077 3.49.268 1.035.154 1.954.46 2.683.882s1.303.997 1.687 1.725.576 1.61.576 2.684q0 3.394-2.301 4.6M116.437 24.28c-1.917-1.571-4.179-2.722-6.825-3.45s-5.597-1.112-8.856-1.112c-1.534 0-3.374.077-5.52.192-2.148.115-4.18.383-6.174.728v35.924c1.956.422 3.988.652 6.02.806 2.032.114 3.834.191 5.367.191 3.374 0 6.403-.421 9.087-1.188 2.722-.806 4.984-1.994 6.863-3.604q2.817-2.416 4.37-6.096c1.035-2.454 1.534-4.218 1.534-7.515 0-3.45-.499-6.364-1.534-8.818-.958-2.492-2.415-4.486-4.332-6.057m-5.981 22.697c-2.07 2.148-5.253 3.221-9.508 3.221-.729 0-1.38 0-1.879-.038-.537 0-.997-.039-1.38-.077v-22.89c.537-.076 1.15-.115 1.763-.153.614 0 1.227-.038 1.802-.038 4.294 0 7.4 1.035 9.394 3.067 1.955 2.032 2.952 5.06 2.952 9.048-.039 3.834-1.074 5.712-3.144 7.86m60.614-14.11c-.498 1.65-.996 3.336-1.533 5.061a395 395 0 0 1-1.61 4.946c-.537 1.61-1.074 3.067-1.534 4.37a107 107 0 0 1-1.572-4.37 379 379 0 0 1-1.61-4.946c-.537-1.687-1.035-3.374-1.534-5.06-.498-1.65-.92-3.221-1.303-4.64h-8.665a205 205 0 0 0 5.483 16.026c1.916 4.908 3.833 9.164 5.712 12.844h6.786c1.879-3.642 3.757-7.936 5.674-12.844a205 205 0 0 0 5.484-16.026h-8.436c-.421 1.419-.843 2.953-1.342 4.64m-22.121 16.524c-.038 0-.077.038-.115.038-.652.269-1.304.46-1.955.652-.461.115-.921.23-1.457.307-.69.115-1.419.23-2.109.307q-1.15.114-2.3.114c-2.339 0-4.218-.498-5.598-1.495-1.38-.996-2.185-2.338-2.339-3.987h18.518c.039-.422.077-.958.115-1.495.039-.575.039-1.074.039-1.572q0-7.305-3.566-11.042c-2.377-2.492-5.597-3.757-9.7-3.757-1.763 0-3.45.345-5.137.997-1.649.651-3.144 1.61-4.409 2.913-1.266 1.266-2.301 2.876-3.106 4.793s-1.188 4.14-1.188 6.71c0 2.108.306 4.102.92 5.904.613 1.84 1.533 3.412 2.799 4.754 1.265 1.342 2.837 2.377 4.754 3.144q2.875 1.15 6.786 1.15a27 27 0 0 0 3.067-.154c.23-.038.422-.038.652-.076 5.636-.614 8.779-2.3 8.779-2.3l-2.185-6.557c-.422.269-.843.46-1.265.652M133.536 37.7c.23-.69.575-1.266.997-1.764s.997-.92 1.649-1.227 1.457-.46 2.339-.46c.958 0 1.763.153 2.377.498.651.345 1.15.767 1.572 1.266.421.498.728 1.111.92 1.763.191.652.306 1.342.345 2.032h-10.697c.115-.767.268-1.457.498-2.108m131.927-16.525v6.786a16 16 0 0 0-2.8-.958q-1.38-.345-3.105-.345c-2.109 0-3.949.345-5.597 1.073-1.61.729-2.99 1.725-4.14 3.106-1.113 1.342-1.995 2.99-2.569 4.907-.613 1.917-.882 4.102-.882 6.48 0 2.377.345 4.485 1.035 6.364q1.035 2.818 2.99 4.83c1.303 1.342 2.914 2.34 4.83 3.068 1.918.728 4.064 1.073 6.519 1.073.996 0 2.07-.038 3.183-.153 1.111-.077 2.184-.23 3.258-.384 1.074-.153 2.07-.345 3.067-.536a25 25 0 0 0 2.569-.652V17.073zm0 28.985c-.423.076-.92.153-1.573.191-.651.039-1.34.077-2.069.077-2.301 0-4.027-.805-5.177-2.377s-1.725-3.642-1.725-6.25c0-5.405 1.993-8.089 5.944-8.089a10 10 0 0 1 2.568.345c.843.23 1.533.499 2.032.844z"/><path fill="#BA50FF" d="m25.84 58.25 29.522-55.4H44.857L20.28 48.971l-5.137-9.279 10.236-18.44H15.144L4.907 39.692l10.237 18.442h.268l-.077.115zm34.468-36.768h-.23l.038-.115H49.611l-29.521 55.4h10.505L55.17 30.645l5.137 9.278L50.07 58.364h10.237l10.237-18.441z"/></svg>
